X:15
T: mod koh
M: 4/4
L: 1/8
R: andro
K: Dmin
|:D2A2 A4|GFEG F2D2|EFGE F2D2|DC,DE FGEF|
|D2A2 A4|GFEG F2D2|EFGE F2D2|FDEF D2z2:||
|:EFGE F2D2|DC,DE F2D2|EFGE F2D2|FDEF D2z2:||
